X: 15283
T: Girl With The Blue Dress On, The
R: polka
M: 2/4
K: Gmajor
B/c/|dB/d/ cA/c/|BG G/F/G/B/|AF F/E/F/G/|AG GB/c/|
dB/d/ cA/c/|BG G/F/G/B/|AF F/E/F/G/|AG G:|
|:z|GB/d/ g>f|fe e2|FA/d/ f>e|ed d/c/B/A/|
GB/d/ g>f|fe e2|fa ef|gg g:|

